X: 1
T: A Fisherman's Song For Attracting Seals
M: 6/8
L: 1/8
R: jig
K: Emin
Bdd dBA|dBA dBA|Bdd dBA |e2d e3 :|
|:g2f g2a|e2d e3|g2f g2a|e2d e3|aee gdd|
edd dBA|Bdd dBA| dBA dBA | Bdd dBA|e2 d e3 :|
